X:21
T:Cercle croul
R:Hanter Dro
N:tagafolk.abc
O:France
A:Bretagne
Z:<anamnese@laposte.net>
M:6/8
L:1/8
Q:1/4=95
K:C
ed/e/ gd e2 f/e/d/c/ B/c/d/B/ cA | ed/e/ gd e2 f/e/d/c/ B/c/d/B/ Az | [M:1/6] z2 | 
ed/e/ gd e2 f/e/d/c/ B/c/d/B/ c2 |: AB/c/ AG c2 cB/c/ edcB | AB/c/ AG c2 cB/c/ edB2 :|
ed/e/ gd e2 f/e/d/c/ B/c/d/B/ Az | [M:1/6] z2 ||
